!!!COM:	Bach, Johann Sebastian
!!!OMV:	O Gott, du frommer Gott
!!!OTL:	O Gott, du frommer Gott
**kern	**fb	**kern	**kern	**kern	**kern
*part5	*part5	*part4	*part3	*part2	*part1
*staff5	*	*staff4	*staff3	*staff2	*staff1
*I"Continuo	*	*I"Voice	*I"Voice	*I"Voice	*I"Voice
*I'Cont.	*	*I'V	*I'V	*I'V	*I'V
*clefF4	*	*clefF4	*clefGv2	*clefG2	*clefG2
*Trd0c0	*	*	*	*	*
*k[f#c#]	*	*k[f#c#]	*k[f#c#]	*k[f#c#]	*k[f#c#]
*M4/4	*	*M4/4	*M4/4	*M4/4	*M4/4
8AL	.	8AL	4c#	4e	4a
8GJ	.	8GJ	.	.	.
=2	=2	=2	=2	=2	=2
8F#L	.	8F#L	4c#	4f#	4a
8EJ	.	8EJ	.	.	.
4D	8	4D	8dL	8f#L	4a
.	7	.	8c#J	8eJ	.
4.G	5	4.G	8BL	8dL	4b
.	.	.	8eJ	8g	.
.	6 4 2	.	8c#L	8e	4a
16F#LL	.	16F#LL	8eJ	8c#J	.
16EJJ	.	16EJJ	.	.	.
=3	=3	=3	=3	=3	=3
8F#L	6	8F#L	8A	8aL	4dd
8D	.	8D	4d	16gL	.
.	.	.	.	16f#JJ	.
8A	4	8A	.	8gL	4ee
8AAJ	3	8AAJ	8c#	8eJ	.
2D;	.	2D;	2A;	2f#;	2dd;
=4	=4	=4	=4	=4	=4
8F#L	.	8F#L	4f#	4a	8cc#L
8E	.	8E	.	.	8ddJ
8D	5 2	8D	4e	4a	4ee
8C#J	.	8C#J	.	.	.
8BBL	5	8BBL	4d	8ddL	4ff#
8AA	.	8A	.	8cc#J	.
8GG#X	6	8G#X	4e	4b	8eeL
8EEJ	7	8EJ	.	.	8ddJ
=5	=5	=5	=5	=5	=5
8AAL	9	8AL	8e	8b	4cc#
8FF#	3	8F#	4f#	4a	.
8DD	6 5	8D	.	.	4b
8EEJ	#	8EJ	16eLL	8g#X	.
.	.	.	16dJJ	.	.
4AA;	.	4A;	4c#;	4e;	4a;
8DL	.	8DL	4A	8f#L	4a
8EJ	.	8EJ	.	8gnJ	.
=6	=6	=6	=6	=6	=6
!!linebreak:original
8F#L	6	8F#L	8f#L	8a	4dd
8G#X	6 5	8G#X	8eJ	4b	.
8A	.	8A	4e	.	8cc#L
8BJ	.	8BJ	.	16aLL	8ddJ
.	.	.	.	16g#XJJ	.
8c#L	6	8c#L	4e	4a	4ee
8d	.	8d	.	.	.
8e	#	8e	8eL	8g#L	4b
8d#XJ	.	8d#XJ	8BJ	8f#J	.
=7	=7	=7	=7	=7	=7
8c#L	6	8c#L	8c#L	4.e	8aL
8A	#7\ 5	8AJ	8eJ	.	8g#XJ
8B	5 4	4B	8BL	.	4f#
8BBJ	#	.	8AJ	8d#X	.
4E;	#	4E;	4G#X;	4B;	4e;
4A	.	4A	8AL	8c#L	4e
.	.	.	8F#J	8d#J	.
=8	=8	=8	=8	=8	=8
8G#XL	6	8G#XL	4G#X	4e	4b
8F#	.	8F#	.	.	.
8E	5 4 2	8E	4A	4f#	4b
8D#XJ	.	8D#XJ	.	.	.
8EL	#	8EL	4G#	4e	4b
8F#	.	8F#	.	.	.
8Gn	6 4 2	8Gn	4A	8eL	4cc#
8EJ	.	8EJ	.	8gnJ	.
=9	=9	=9	=9	=9	=9
!!pagebreak:original
8F#L	6	8F#L	8AL	8f#L	8ddL
8G#X	6 4	8G#X	8G#XJ	8e	8cc#J
8A	6 #4| 2	8A	8F#L	8d#X	4b
8G#J	#6\	8G#J	8BJ	8e#XJ	.
8F#L	.	8F#L	8c#L	8f#L	8aL
8E	#	8E	8dJ	8g#XJ	8bJ
8D	7 5 2	8D	4e	[4a	4cc#
8C#J	.	8C#J	.	.	.
=10	=10	=10	=10	=10	=10
8D#XL	6 5	8D#XL	4f#	4a]	2b
8BB	.	8BB	.	.	.
8E	.	8E	2e	2gn	.
8DnJ	.	8DnJ	.	.	.
8C#L	6 5	8C#L	.	.	4a
8AA	.	8AAJ	.	.	.
8D	.	4D	[4d	[4f#	4a
8DDJ	.	.	.	.	.
=11	=11	=11	=11	=11	=11
2.AA;	6 4	2.AA;	4d]	4f#]	2.a;
.	5 3	.	8c#L	8eL	.
.	4 2	.	8BJ	8dJ	.
.	5 3	.	4c#;	4e;	.
=||	=||	=||	=||	=||	=||
*-	*-	*-	*-	*-	*-
!!!system-decoration: s1,s2,s3,s4,s5
